dist/assets/img/about-.svg

<svg width="40" height="40" viewBox="0 0 40 40" fill="none" xmlns="http://www.w3.org/2000/svg">
<path d="M5.01499 0C2.26254 0 0 2.26214 0 5.01499C0 7.41938 1.72508 9.44895 3.996 9.92448V30.0755C1.72508 30.5511 0 32.581 0 34.9854C0 37.7383 2.26214 40 5.01499 40C7.43137 40 9.44655 38.2521 9.90649 35.964H30.0683C30.5287 38.2545 32.567 40 34.9854 40C37.6428 40 39.8226 37.8869 39.9716 35.2639C39.9902 35.1723 39.9996 35.079 39.9996 34.9854C39.9996 34.8919 39.9902 34.7986 39.9716 34.7069C39.8414 32.4144 38.1598 30.5119 35.964 30.0683V9.93167C38.1598 9.48811 39.8414 7.58601 39.972 5.29391C39.9906 5.20223 40 5.10893 40 5.01538C40 4.92184 39.9906 4.82853 39.972 4.73686C39.8222 2.11389 37.6428 0 34.985 0C32.581 0 30.5511 1.72508 30.0755 3.996H9.8981C9.42258 1.72787 7.41658 0 5.01499 0ZM5.01499 2.7972C6.25654 2.7972 7.23277 3.77383 7.23277 5.01499C7.23277 6.25654 6.25654 7.23277 5.01499 7.23277C3.77423 7.23277 2.7972 6.25654 2.7972 5.01499C2.7972 3.77423 3.77383 2.7972 5.01499 2.7972ZM34.985 2.7972C36.2266 2.7972 37.2028 3.77383 37.2028 5.01499C37.2028 6.25654 36.2266 7.23277 34.985 7.23277C33.7439 7.23277 32.7672 6.25654 32.7672 5.01499C32.7672 3.77423 33.7439 2.7972 34.985 2.7972ZM30.3049 6.79321C30.5567 7.44598 30.941 8.03952 31.4336 8.53642C31.9261 9.03331 32.5163 9.4228 33.1668 9.68032V30.3197C32.5229 30.5746 31.9381 30.9587 31.4484 31.4484C30.9587 31.9381 30.5746 32.5229 30.3197 33.1668H9.66034C9.40584 32.5177 9.01971 31.9284 8.52627 31.4358C8.03282 30.9433 7.44276 30.5582 6.79321 30.3049V9.6951C7.44975 9.43935 8.04551 9.04904 8.54218 8.54927C9.03886 8.0495 9.42545 7.45133 9.67712 6.79321H30.3049ZM5.01499 32.7672C6.25614 32.7672 7.23237 33.7439 7.23237 34.985C7.23237 36.2266 6.25614 37.2028 5.01459 37.2028C3.77423 37.2028 2.7972 36.2266 2.7972 34.985C2.7972 33.7443 3.77383 32.7672 5.01499 32.7672ZM34.985 32.7672C36.2262 32.7672 37.2024 33.7439 37.2024 34.985C37.2024 36.2266 36.2262 37.2028 34.9846 37.2028C33.7435 37.2028 32.7668 36.2266 32.7668 34.985C32.7668 33.7439 33.7439 32.7672 34.985 32.7672Z" fill="#5695CB"/>
</svg>

<svg width="40" height="40" fill="none" xmlns="http://www.w3.org/2000/svg"><path d="M5.015 0C2.263 0 0 2.262 0 5.015c0 2.404 1.725 4.434 3.996 4.91v20.15C1.726 30.552 0 32.582 0 34.986 0 37.738 2.262 40 5.015 40c2.416 0 4.432-1.748 4.891-4.036h20.162c.46 2.29 2.499 4.036 4.917 4.036 2.658 0 4.838-2.113 4.987-4.736a1.4 1.4 0 000-.557 5.039 5.039 0 00-4.008-4.639V9.932a5.039 5.039 0 004.008-4.638 1.4 1.4 0 000-.557C39.822 2.114 37.642 0 34.985 0c-2.404 0-4.434 1.725-4.91 3.996H9.899C9.423 1.728 7.417 0 5.015 0zm0 2.797c1.242 0 2.218.977 2.218 2.218a2.197 2.197 0 01-2.218 2.218 2.197 2.197 0 01-2.218-2.218c0-1.24.977-2.218 2.218-2.218zm29.97 0c1.242 0 2.218.977 2.218 2.218a2.197 2.197 0 01-2.218 2.218 2.197 2.197 0 01-2.218-2.218c0-1.24.977-2.218 2.218-2.218zm-4.68 3.996a5.065 5.065 0 002.862 2.887v20.64a5.068 5.068 0 00-2.847 2.847H9.66a5.051 5.051 0 00-2.867-2.862V9.695a5.05 5.05 0 002.884-2.902h20.628zM5.015 32.767c1.241 0 2.217.977 2.217 2.218a2.197 2.197 0 01-2.217 2.218 2.197 2.197 0 01-2.218-2.218c0-1.24.977-2.218 2.218-2.218zm29.97 0c1.241 0 2.217.977 2.217 2.218a2.197 2.197 0 01-2.217 2.218 2.197 2.197 0 01-2.218-2.218c0-1.241.977-2.218 2.218-2.218z" fill="#5695CB"/></svg> 6.79321C30.5567 7.44598 30.941 8.03952 31.4336 8.53642C31.9261 9.03331 32.5163 9.4228 33.1668 9.68032V30.3197C32.5229 30.5746 31.9381 30.9587 31.4484 31.4484C30.9587 31.9381 30.5746 32.5229 30.3197 33.1668H9.66034C9.40584 32.5177 9.01971 31.9284 8.52627 31.4358C8.03282 30.9433 7.44276 30.5582 6.79321 30.3049V9.6951C7.44975 9.43935 8.04551 9.04904 8.54218 8.54927C9.03886 8.0495 9.42545 7.45133 9.67712 6.79321H30.3049ZM5.01499 32.7672C6.25614 32.7672 7.23237 33.7439 7.23237 34.985C7.23237 36.2266 6.25614 37.2028 5.01459 37.2028C3.77423 37.2028 2.7972 36.2266 2.7972 34.985C2.7972 33.7443 3.77383 32.7672 5.01499 32.7672ZM34.985 32.7672C36.2262 32.7672 37.2024 33.7439 37.2024 34.985C37.2024 36.2266 36.2262 37.2028 34.9846 37.2028C33.7435 37.2028 32.7668 36.2266 32.7668 34.985C32.7668 33.7439 33.7439 32.7672 34.985 32.7672Z" fill="#5695CB"/>
</svg>
